X:1
T:Oh, Dear, What Can the Matter Be
M:3/4
L:1/4
K:C
 G3| G3| G E c| G E C| F3| F3| F D E| F E D| G3| G3| G E c| G E C|\
 D E F| E F D| C3-| C2 z|
